src/public/img/no-data-chart-main.svg

<svg width="180" height="152" viewBox="0 0 180 152" fill="none" xmlns="http://www.w3.org/2000/svg">
<rect y="18" width="162" height="134" rx="12" fill="#F3F5F7"/>
<rect x="24" y="69" width="10" height="59" rx="4" fill="url(#paint0_linear_1984_5283)"/>
<rect x="50" y="42" width="10" height="86" rx="4" fill="url(#paint1_linear_1984_5283)"/>
<rect x="76" y="72" width="10" height="56" rx="4" fill="url(#paint2_linear_1984_5283)"/>
<rect x="102" y="108" width="10" height="20" rx="4" fill="url(#paint3_linear_1984_5283)"/>
<rect x="128" y="76" width="10" height="52" rx="4" fill="url(#paint4_linear_1984_5283)"/>
<circle cx="154" cy="26" r="25" fill="white" stroke="#DFE3E7" stroke-width="2"/>
<rect width="24" height="24" transform="translate(142 14)" fill="white"/>
<path fill-rule="evenodd" clip-rule="evenodd" d="M145.514 32.3923C145.212 32.6754 145.197 33.1501 145.48 33.4524C145.709 33.6969 146.063 33.7538 146.35 33.6169C146.389 33.5347 146.444 33.4583 146.515 33.3923L161.427 19.4254C161.485 19.3713 161.549 19.328 161.617 19.2956C161.746 19.0252 161.704 18.692 161.487 18.4601C161.204 18.1578 160.729 18.1423 160.427 18.4254L158.925 19.8325C157.478 18.9184 155.805 18.25 154 18.25C150.936 18.25 148.253 20.1762 146.408 21.9609C145.47 22.8676 144.714 23.7717 144.192 24.4483C143.931 24.7872 143.727 25.0706 143.588 25.2708C143.518 25.3709 143.464 25.4504 143.427 25.5057C143.409 25.5333 143.395 25.555 143.385 25.5702L143.373 25.588L143.37 25.5932L143.369 25.5949C143.369 25.5949 143.368 25.5959 144 26L143.368 25.5959C143.211 25.8423 143.211 26.1577 143.368 26.4041L144 26C143.368 26.4041 143.368 26.4041 143.368 26.4041L143.37 26.4068L143.373 26.412L143.385 26.4298C143.395 26.445 143.409 26.4666 143.427 26.4943C143.464 26.5496 143.518 26.6291 143.588 26.7292C143.727 26.9294 143.931 27.2128 144.192 27.5517C144.714 28.2283 145.47 29.1324 146.408 30.0391C146.665 30.288 146.938 30.5396 147.227 30.7883L145.514 32.3923ZM150 26C150 26.6451 150.153 27.2545 150.424 27.7941L148.329 29.7565C148.023 29.4985 147.73 29.2315 147.45 28.9609C146.578 28.1176 145.87 27.2717 145.38 26.6358C145.187 26.3861 145.029 26.1698 144.909 26C145.029 25.8302 145.187 25.6139 145.38 25.3642C145.87 24.7283 146.578 23.8824 147.45 23.0391C149.224 21.3238 151.541 19.75 154 19.75C155.325 19.75 156.609 20.2069 157.788 20.8967L156.024 22.5492C155.43 22.2001 154.739 22 154 22C151.791 22 150 23.7909 150 26Z" fill="#111A2C"/>
<path d="M161.255 21.6418L160.157 22.6702C160.291 22.792 160.422 22.9152 160.55 23.0391C161.422 23.8824 162.13 24.7283 162.62 25.3642C162.813 25.6139 162.971 25.8302 163.091 26C162.971 26.1698 162.813 26.3861 162.62 26.6358C162.13 27.2717 161.422 28.1176 160.55 28.9609C158.776 30.6762 156.459 32.25 154 32.25C152.895 32.25 151.819 31.9322 150.808 31.4266L149.65 32.5104C150.959 33.244 152.43 33.75 154 33.75C157.064 33.75 159.747 31.8238 161.592 30.0391C162.53 29.1324 163.286 28.2283 163.808 27.5517C164.069 27.2128 164.273 26.9294 164.412 26.7292C164.482 26.6291 164.536 26.5496 164.573 26.4943C164.591 26.4666 164.605 26.445 164.615 26.4298L164.627 26.412L164.63 26.4068L164.631 26.4051C164.631 26.4051 164.632 26.4041 164 26L164.632 26.4041C164.789 26.1577 164.789 25.8423 164.632 25.5959L164 26C164.632 25.5959 164.632 25.5959 164.632 25.5959L164.63 25.5932L164.627 25.588L164.615 25.5702C164.605 25.555 164.591 25.5333 164.573 25.5057C164.536 25.4504 164.482 25.3709 164.412 25.2708C164.273 25.0706 164.069 24.7872 163.808 24.4483C163.286 23.7717 162.53 22.8676 161.592 21.9609C161.483 21.8549 161.37 21.7484 161.255 21.6418Z" fill="#111A2C"/>
<path d="M152.6 29.7481C153.036 29.911 153.507 30 154 30C156.209 30 158 28.2091 158 26C158 25.5995 157.941 25.2128 157.832 24.848L152.6 29.7481Z" fill="#111A2C"/>
<defs>
<linearGradient id="paint0_linear_1984_5283" x1="29" y1="69" x2="29" y2="128" gradientUnits="userSpaceOnUse">
<stop stop-color="#111A2C" stop-opacity="0.24"/>
<stop offset="1" stop-color="#111A2C" stop-opacity="0.04"/>
</linearGradient>
<linearGradient id="paint1_linear_1984_5283" x1="55" y1="42" x2="55" y2="128" gradientUnits="userSpaceOnUse">
<stop stop-color="#111A2C" stop-opacity="0.24"/>
<stop offset="1" stop-color="#111A2C" stop-opacity="0.04"/>
</linearGradient>
<linearGradient id="paint2_linear_1984_5283" x1="81" y1="72" x2="81" y2="128" gradientUnits="userSpaceOnUse">
<stop stop-color="#111A2C" stop-opacity="0.24"/>
<stop offset="1" stop-color="#111A2C" stop-opacity="0.04"/>
</linearGradient>
<linearGradient id="paint3_linear_1984_5283" x1="107" y1="108" x2="107" y2="128" gradientUnits="userSpaceOnUse">
<stop stop-color="#111A2C" stop-opacity="0.24"/>
<stop offset="1" stop-color="#111A2C" stop-opacity="0.04"/>
</linearGradient>
<linearGradient id="paint4_linear_1984_5283" x1="133" y1="76" x2="133" y2="128" gradientUnits="userSpaceOnUse">
<stop stop-color="#111A2C" stop-opacity="0.24"/>
<stop offset="1" stop-color="#111A2C" stop-opacity="0.04"/>
</linearGradient>
</defs>
</svg>

<svg xmlns="http://www.w3.org/2000/svg" width="180" height="152" fill="none">
  <rect width="162" height="134" y="18" fill="#F3F5F7" rx="12"/>
  <rect width="10" height="59" x="24" y="69" fill="url(#a)" rx="4"/>
  <rect width="10" height="86" x="50" y="42" fill="url(#b)" rx="4"/>
  <rect width="10" height="56" x="76" y="72" fill="url(#c)" rx="4"/>
  <rect width="10" height="20" x="102" y="108" fill="url(#d)" rx="4"/>
  <rect width="10" height="52" x="128" y="76" fill="url(#e)" rx="4"/>
  <circle cx="154" cy="26" r="25" fill="#fff" stroke="#DFE3E7" stroke-width="2"/>
  <path fill="#fff" d="M142 14h24v24h-24z"/>
  <path fill="#111A2C" fill-rule="evenodd" d="M145.514 32.392a.75.75 0 0 0 .836 1.225.738.738 0 0 1 .165-.225l14.912-13.967a.753.753 0 0 1 .19-.13.75.75 0 0 0-1.19-.87l-1.502 1.407c-1.447-.914-3.12-1.582-4.925-1.582-3.064 0-5.747 1.926-7.592 3.71a23.27 23.27 0 0 0-2.981 3.546l-.042.064-.012.018-.003.005-.001.002L144 26l-.632-.404a.752.752 0 0 0 0 .808L144 26l-.632.404.002.003.003.005.012.018.042.064a20.988 20.988 0 0 0 .765 1.057 23.27 23.27 0 0 0 2.216 2.488c.257.249.53.5.819.75l-1.713 1.603ZM150 26c0 .645.153 1.255.424 1.794l-2.095 1.962a17.494 17.494 0 0 1-.879-.795A21.73 21.73 0 0 1 144.909 26a21.73 21.73 0 0 1 2.541-2.96c1.774-1.716 4.091-3.29 6.55-3.29 1.325 0 2.609.457 3.788 1.147l-1.764 1.652A4 4 0 0 0 150 26Z" clip-rule="evenodd"/>
  <path fill="#111A2C" d="m161.255 21.642-1.098 1.028a21.73 21.73 0 0 1 2.934 3.33 21.73 21.73 0 0 1-2.541 2.96c-1.774 1.716-4.091 3.29-6.55 3.29-1.105 0-2.181-.318-3.192-.823l-1.158 1.083c1.309.734 2.78 1.24 4.35 1.24 3.064 0 5.747-1.926 7.592-3.71a23.27 23.27 0 0 0 2.981-3.546l.042-.064.012-.018.003-.005.001-.002L164 26l.632.404a.752.752 0 0 0 0-.808L164 26l.632-.404-.002-.003-.003-.005-.012-.018-.042-.064a20.988 20.988 0 0 0-.765-1.057 23.27 23.27 0 0 0-2.553-2.807Z"/>
  <path fill="#111A2C" d="M152.6 29.748a4 4 0 0 0 5.232-4.9l-5.232 4.9Z"/>
  <defs>
    <linearGradient id="a" x1="29" x2="29" y1="69" y2="128" gradientUnits="userSpaceOnUse">
      <stop stop-color="#111A2C" stop-opacity=".24"/>
      <stop offset="1" stop-color="#111A2C" stop-opacity=".04"/>
    </linearGradient>
    <linearGradient id="b" x1="55" x2="55" y1="42" y2="128" gradientUnits="userSpaceOnUse">
      <stop stop-color="#111A2C" stop-opacity=".24"/>
      <stop offset="1" stop-color="#111A2C" stop-opacity=".04"/>
    </linearGradient>
    <linearGradient id="c" x1="81" x2="81" y1="72" y2="128" gradientUnits="userSpaceOnUse">
      <stop stop-color="#111A2C" stop-opacity=".24"/>
      <stop offset="1" stop-color="#111A2C" stop-opacity=".04"/>
    </linearGradient>
    <linearGradient id="d" x1="107" x2="107" y1="108" y2="128" gradientUnits="userSpaceOnUse">
      <stop stop-color="#111A2C" stop-opacity=".24"/>
      <stop offset="1" stop-color="#111A2C" stop-opacity=".04"/>
    </linearGradient>
    <linearGradient id="e" x1="133" x2="133" y1="76" y2="128" gradientUnits="userSpaceOnUse">
      <stop stop-color="#111A2C" stop-opacity=".24"/>
      <stop offset="1" stop-color="#111A2C" stop-opacity=".04"/>
    </linearGradient>
  </defs>
</svg>
